static/images/mobile/copyright/wikipedia-tagline-ne.svg

<?xml version="1.0" encoding="UTF-8"?>
<svg width="120px" height="17px" viewBox="0 0 120 17" version="1.1" xmlns="http://www.w3.org/2000/svg" xmlns:xlink="http://www.w3.org/1999/xlink">
    <title>wikipedia-tagline-ne</title>
    <g id="Page-1" stroke="none" stroke-width="1" fill="none" fill-rule="evenodd">
        <path d="M112.494827,10.7840778 C112.886273,11.242863 113.232548,11.7142704 113.533655,12.1983 C113.839783,12.6772556 114.100745,13.1662926 114.316542,13.6654111 L113.955209,13.8544778 C113.714321,13.320063 113.440813,12.8108407 113.134685,12.3268111 C112.828557,11.8377667 112.48981,11.3739148 112.118442,10.9352556 C111.696892,11.1016333 111.270305,11.1848222 110.838682,11.1848222 C110.507463,11.1848222 110.259046,11.114237 110.093433,10.9730667 C109.927827,10.8268593 109.845024,10.6075481 109.845024,10.3151333 C109.845024,10.0479259 109.917791,9.84878148 110.063327,9.7177 C110.213884,9.58157407 110.439716,9.51351111 110.740823,9.51351111 C111.097134,9.51351111 111.486079,9.71013704 111.90766,10.1033889 L112.013062,10.2017222 L112.110944,10.1185 C112.547551,9.75045556 112.918911,9.28915926 113.225024,8.73461111 C112.336753,8.70438889 111.626623,8.49515926 111.094634,8.10692222 C110.562674,7.71871481 110.296695,7.18934444 110.296695,6.51881111 C110.296695,5.87852222 110.502452,5.35167037 110.913968,4.93825556 C111.325491,4.5197963 111.817295,4.31056667 112.389381,4.31056667 C113.157244,4.31056667 113.766986,4.57273333 114.218605,5.09706667 C114.67529,5.6214 114.903632,6.29951111 114.903632,7.1314 C114.903632,7.90784444 114.702892,8.60106667 114.301412,9.21106667 C113.899931,9.8211037 113.297711,10.345437 112.49475,10.7840667 L112.494827,10.7840778 Z M114.000324,6.16341111 C114.000324,5.28615185 113.644009,4.84752222 112.931379,4.84752222 C112.46968,4.84752222 112.095813,5.05927407 111.809778,5.48277778 C111.528742,5.90122963 111.388224,6.4078963 111.388224,7.00277778 C111.388224,7.82959259 111.857465,8.243 112.795949,8.243 C113.026802,8.243 113.280236,8.19258519 113.556251,8.09175556 C113.852344,7.42625926 114.00039,6.78344444 114.00039,6.16331111 L114.000324,6.16341111 Z M120,5.50547778 L117.719049,5.50547778 L117.719049,14.1342556 L117.425471,14.1342556 L116.552246,13.1208778 L116.552246,5.50543333 L115.791944,5.50543333 L114.978951,4.43155556 L120,4.43155556 L120,5.50543333 L120,5.50547778 Z M109.44612,4.43158889 L109.44612,5.50546667 L107.165203,5.50546667 L107.165203,14.1115778 L106.886677,14.1115778 L105.983346,13.0603889 L105.983346,5.5055 L104.30465,5.5055 L104.30465,4.43162222 L106.389804,4.43162222 L105.245529,2.92673333 C104.73364,2.25619259 104.251864,1.83019259 103.8002,1.64873333 C103.348536,1.46219259 102.691126,1.36892222 101.827969,1.36892222 L100.804194,1.36892222 L100.322418,0.0832555556 L101.135421,0.0832555556 C102.304691,0.0832555556 103.140279,0.244588889 103.642185,0.567255556 C104.144039,0.889914815 104.741246,1.52517407 105.433805,2.47303333 L106.864093,4.4317 L109.44612,4.4317 L109.44612,4.43158889 Z M104.507911,4.43158889 L104.507911,5.50546667 L100.021396,5.50546667 L100.021396,7.88013333 C100.297411,7.7188 100.618595,7.63813333 100.984949,7.63813333 C101.60724,7.63813333 102.171819,7.90282222 102.678687,8.4322 C103.190576,8.96157037 103.446521,9.65479259 103.446521,10.5118667 C103.446521,11.1874519 103.235742,11.8983407 102.814184,12.6445333 L101.971075,11.8126556 C102.442816,10.9908778 102.678687,10.2724333 102.678687,9.65732222 C102.678687,9.20357407 102.588356,8.86326296 102.407693,8.63638889 C102.232045,8.40951481 101.968572,8.29607778 101.617275,8.29607778 C101.115428,8.29607778 100.583476,8.54563704 100.021418,9.04475556 L100.021418,14.1116444 L99.7203075,14.1116444 L98.8395613,13.1058333 L98.8395613,9.87661111 C98.1520307,10.4715222 97.4996343,10.7689778 96.8823721,10.7689778 C96.265095,10.7689778 95.7732908,10.5723556 95.4069593,10.1791111 C95.0406056,9.78082222 94.8574288,9.27667407 94.8574288,8.66666667 C94.8574288,8.12720741 95.0255492,7.70372593 95.36179,7.39622222 C95.7030446,7.08364444 96.0995111,6.92735556 96.5511894,6.92735556 C97.4143907,6.92735556 98.1772035,7.33068889 98.8396277,8.13735556 L98.8396277,5.50557778 L94.0068213,5.50557778 L94.0068213,4.4317 L104.508022,4.4317 L104.507911,4.43158889 Z M98.8395281,8.64392222 L98.8395281,8.50023333 C98.4530931,8.15235926 97.9587819,7.97842222 97.3565834,7.97842222 C96.7342925,7.97842222 96.2500091,8.10194444 95.9037332,8.34898889 C95.5624785,8.59098889 95.3918512,8.86828148 95.3918512,9.18086667 C95.3918512,9.45311111 95.4796755,9.67746296 95.6553241,9.85392222 C95.8359866,10.025337 96.0818924,10.1110444 96.3930416,10.1110444 C96.9701632,10.1110444 97.7856587,9.62200741 98.8395281,8.64393333 L98.8395281,8.64392222 Z M87.9991041,8.72703333 C87.0907778,8.64636667 86.2401481,8.45478519 85.4472151,8.15228889 L82.8953262,9.93706667 L81.9919953,9.2035 L84.302996,7.70616667 C83.6556135,7.46921111 83.1688231,7.1894 82.8426249,6.86673333 C82.5214406,6.53902222 82.3608485,6.16594815 82.3608485,5.74751111 C82.3608485,5.37442222 82.5264582,5.05175556 82.8576777,4.77951111 C83.1888972,4.50221481 83.5577504,4.36356667 83.9642373,4.36356667 C84.5664579,4.36356667 85.1185026,4.60304815 85.6203715,5.08201111 C86.1222183,5.55592222 86.3731417,6.06514444 86.3731417,6.60967778 C86.3731417,7.1340037 86.1548382,7.56255926 85.718231,7.89534444 C86.2000075,8.0717963 86.8624317,8.21295926 87.7055036,8.31883333 C88.5787327,8.42975185 89.2185944,8.58856667 89.6250887,8.79527778 C90.0315829,8.99694444 90.4180216,9.27927778 90.7844048,9.64227778 L90.7844048,5.50561111 L86.9677972,5.50561111 L86.2601853,4.43173333 L94.2320595,4.43173333 L94.2320595,5.50561111 L91.9436213,5.50561111 L91.9436213,14.0890556 L91.6274583,14.0890556 L90.7843495,13.0605556 L90.7843495,12.3345556 C89.9261621,12.9294741 89.1658563,13.2269333 88.5034321,13.2269333 C87.8911763,13.2269333 87.2864488,12.9244333 86.6892495,12.3194333 C86.0970641,11.7093963 85.8009714,11.1396926 85.8009714,10.6103222 C85.8009714,10.2170778 85.9741093,9.84652222 86.3203852,9.49865556 C86.6666611,9.15078148 87.2262267,8.89365556 87.999082,8.72727778 L87.9991041,8.72703333 Z M85.7181978,6.08014444 C85.7181978,5.79276667 85.6203273,5.55832963 85.4246084,5.37683333 C85.2339033,5.19533704 84.9905082,5.10458889 84.6944228,5.10458889 C84.3632033,5.10458889 84.0846777,5.21046296 83.8588459,5.42221111 C83.6380354,5.62891481 83.5276301,5.89864074 83.5276301,6.23138889 C83.5276301,6.49355926 83.6179614,6.7279963 83.7986239,6.9347 C83.9792863,7.13636667 84.2527944,7.31282593 84.619148,7.46407778 C85.3518479,6.96495185 85.7181978,6.50365556 85.7181978,6.08018889 L85.7181978,6.08014444 Z M90.7843605,10.5344778 L90.7843605,10.1563556 C90.3527673,9.83873333 89.9211666,9.67992222 89.4895586,9.67992222 C88.8973732,9.67992222 88.2725532,9.84377407 87.6150986,10.1714778 C86.9576736,10.4941444 86.6289611,10.8596667 86.6289611,11.2680444 C86.6289611,11.5907037 86.73937,11.8604296 86.9601879,12.0772222 C87.1810058,12.2889704 87.4394574,12.3948444 87.7355428,12.3948444 C88.0767974,12.3948444 88.6589255,12.1528481 89.4819272,11.6688556 C90.3049435,11.1798111 90.7390511,10.8017 90.7842499,10.5345222 L90.7843605,10.5344778 Z M81.8188499,4.43157778 L81.8188499,5.50546667 L79.5304117,5.50546667 L79.5304117,14.0889111 L79.2142487,14.0889111 L78.3485552,13.1209111 L78.3485552,10.6101333 C77.4903678,11.2050519 76.730062,11.5025111 76.0676378,11.5025111 C75.4553821,11.5025111 74.8506545,11.2000111 74.2534552,10.5950111 C73.6612698,9.98497407 73.3651771,9.41527037 73.3651771,8.8859 C73.3651771,8.53802593 73.5006777,8.2078 73.7716788,7.89522222 C74.0426799,7.58263704 74.4441603,7.34063704 74.9761199,7.16922222 C75.5131009,6.99276296 75.967264,6.90453333 76.3386094,6.90453333 C77.0060697,6.90453333 77.6760516,7.24232222 78.3485552,7.9179 L78.3485552,5.50545556 L72.4768769,5.50545556 L72.4768769,4.43157778 L81.8188499,4.43157778 L81.8188499,4.43157778 Z M78.3485331,8.81025556 L78.3485331,8.43213333 C77.9169398,8.11451111 77.4853392,7.9557 77.0537312,7.9557 C76.4615458,7.9557 75.8367258,8.11955185 75.1792712,8.44725556 C74.5218462,8.76992222 74.1931336,9.13544074 74.1931336,9.54381111 C74.1931336,9.86647778 74.3035389,10.1362074 74.5243494,10.353 C74.74516,10.5647481 75.0036116,10.6706222 75.2997043,10.6706222 C75.6409589,10.6706222 76.2230871,10.4286222 77.0460887,9.94462222 C77.869105,9.45558519 78.3032126,9.07747407 78.3484114,8.81028889 L78.3485331,8.81025556 Z M72.6801387,4.43158889 L72.6801387,5.50546667 L70.3992214,5.50546667 L70.3992214,14.0889111 L70.0604737,14.0889111 L69.2173649,13.1209111 L69.2173649,5.50546667 L67.5386681,5.50546667 L67.5386681,4.43158889 L69.4732948,4.43158889 C68.861039,3.84171481 68.5549112,3.18882593 68.5549112,2.47292222 C68.5549112,1.62595926 68.9915257,0.978107407 69.8647547,0.529366667 C70.5573066,0.176455556 71.3677882,-1.77635684e-15 72.2961996,-1.77635684e-15 C73.7565707,-1.77635684e-15 75.0889768,0.370555556 76.293418,1.11166667 C77.5028731,1.84774815 78.5818562,2.95437778 79.5303675,4.43155556 L79.0184855,4.43155556 C78.0599465,3.29718519 77.0361899,2.44766667 75.9472158,1.883 C74.858168,1.3132963 73.7064096,1.02844444 72.4919407,1.02844444 C71.5735865,1.02844444 70.886056,1.18221481 70.429349,1.48975556 C69.9726641,1.79225185 69.7443217,2.24599259 69.7443217,2.85097778 C69.7443217,3.39043704 69.9024032,3.91728889 70.2185663,4.43153333 L72.6800945,4.43153333 L72.6801387,4.43158889 Z M63.481305,4.43158889 L63.481305,5.50546667 L61.2003434,5.50546667 L61.2003434,14.0738 L60.8841804,14.0738 L60.0184869,13.1209222 L60.0184869,9.67247778 L56.3449966,11.6462556 L55.4868351,10.8748778 L59.7174208,8.64398889 C58.954645,7.87769259 58.28717,7.49454444 57.7149959,7.49454444 C57.132853,7.49454444 56.3098367,7.81720741 55.2459468,8.46253333 L54.342616,7.55504444 C54.7892583,7.31304444 55.3161967,7.08868889 55.9234312,6.88197778 C56.5356869,6.67022963 56.994864,6.56435556 57.3009624,6.56435556 C57.642217,6.56435556 57.9960211,6.67527037 58.3623748,6.8971 C58.7337423,7.11893704 59.285787,7.62815926 60.018509,8.42476667 L60.018509,5.50565556 L53.8081715,5.50565556 L53.8081715,4.43177778 L63.481305,4.43177778 L63.481305,4.43158889 Z M54.0414946,5.50547778 L48.6591136,5.50547778 L48.6591136,4.4316 L54.0414946,4.4316 L54.0414946,5.50547778 Z M54.2372135,8.84814444 L51.9939004,8.84814444 C51.6375893,8.84814444 51.4192857,8.91620741 51.3389896,9.05233333 C51.2637148,9.18341481 51.2260774,9.45818519 51.2260774,9.87664444 C51.2260774,10.0883926 51.2436408,10.3228296 51.2787676,10.5799556 C51.293824,10.726163 51.3013522,10.8824519 51.3013522,11.0488222 C51.3013522,11.2757037 51.2059997,11.3891444 51.0152947,11.3891444 C50.7894629,11.3891444 50.4507152,11.0463111 49.9990516,10.3606444 C49.5524093,9.67497778 49.3290881,9.13045926 49.3290881,8.72708889 C49.3290881,8.44475556 49.42193,8.21788148 49.6076137,8.04646667 C49.7932975,7.87000741 50.0090941,7.78177778 50.2550036,7.78177778 L54.2372135,7.78177778 L54.2372135,8.84808889 L54.2372135,8.84814444 Z M48.8699627,4.4317 L48.8699627,5.50557778 L46.5815023,5.50557778 L46.5815023,14.1116889 L46.2277019,14.1116889 L45.3996458,13.1436889 L45.3996458,8.3718 L43.5328173,8.3718 C42.7298565,8.3718 42.1702909,8.5054037 41.8541205,8.77261111 C41.5379575,9.03981852 41.3798759,9.40785926 41.3798759,9.87673333 C41.3798759,10.3758593 41.5806161,10.9178222 41.9820965,11.5026222 C42.3885908,12.0874519 43.0485081,12.8512667 43.9618483,13.7940667 L43.7059073,14.0360667 C42.4362118,12.7856963 41.6031307,11.8302889 41.2066642,11.1698444 C40.8102051,10.5093926 40.6119756,9.84642963 40.6119756,9.18095556 C40.6119756,8.61628889 40.7700571,8.16254815 41.0862201,7.81973333 C41.4023832,7.4769037 41.9469071,7.30548889 42.7197918,7.30548889 L45.3996458,7.30548889 L45.3996458,5.5056 L39.625849,5.5056 L39.625849,4.4317 L48.8699627,4.4317 L48.8699627,4.4317 Z M39.8441526,4.43168889 L39.8441526,5.50557778 L37.5557144,5.50557778 L37.5557144,14.0890222 L37.2395513,14.0890222 L36.3738579,13.1210222 L36.3738579,10.6102444 C35.5156705,11.205163 34.7553647,11.5026222 34.0929405,11.5026222 C33.4806847,11.5026222 32.8759572,11.2001222 32.2787579,10.5951222 C31.6865725,9.98508519 31.3904798,9.41538148 31.3904798,8.88601111 C31.3904798,8.53813704 31.5259803,8.20791111 31.7969814,7.89533333 C32.0679825,7.58274815 32.4694629,7.34074815 33.0014226,7.16933333 C33.5384035,6.99287407 33.9925667,6.90464444 34.3639121,6.90464444 C35.0313723,6.90464444 35.7013543,7.24243333 36.3738579,7.91801111 L36.3738579,5.50556667 L30.5021795,5.50556667 L30.5021795,4.43168889 L39.8441526,4.43168889 L39.8441526,4.43168889 Z M36.3738358,8.81036667 L36.3738358,8.43224444 C35.9422425,8.11462222 35.5106419,7.95581111 35.0790338,7.95581111 C34.4868484,7.95581111 33.8620284,8.11966296 33.2045739,8.44736667 C32.5471488,8.77003333 32.2184363,9.13555185 32.2184363,9.54392222 C32.2184363,9.86658889 32.3288453,10.1363185 32.5496632,10.3531111 C32.7704737,10.5648593 33.0289253,10.6707333 33.325018,10.6707333 C33.6662727,10.6707333 34.2484008,10.4287333 35.0714024,9.94473333 C35.8944188,9.4556963 36.3285264,9.07758519 36.3737252,8.8104 L36.3738358,8.81036667 Z M30.9162463,9.32458889 C30.3943218,9.58675926 29.7770595,9.71784444 29.0644594,9.71784444 C28.5224646,9.71784444 27.8926307,9.5792 27.1749578,9.30191111 C26.8638087,9.94723704 26.5476419,10.4236815 26.2264576,10.7312444 C26.7182692,11.3362444 27.1749394,11.8832815 27.596468,12.3723556 C28.02304,12.8613926 28.4144926,13.2899481 28.7708258,13.6580222 L28.5525222,13.9151444 C27.8198223,13.1387 27.20256,12.4631074 26.7007354,11.8883667 C26.1988886,11.3085741 25.8124499,10.8296111 25.5414193,10.4514778 C24.9994244,9.69021852 24.728427,9.09025556 24.728427,8.65158889 C24.728427,8.39446296 24.7861384,8.20288148 24.9015613,8.07684444 C25.0220054,7.94575556 25.2001609,7.88021111 25.4360279,7.88021111 C25.7120429,7.88021111 26.0282059,7.96592222 26.384517,8.13734444 C26.620384,7.78947037 26.7383175,7.31050741 26.7383175,6.70045556 C26.7383175,6.32737407 26.6329298,5.92907778 26.4221544,5.50556667 L23.9982304,5.50556667 L23.9982304,4.43168889 L30.7205384,4.43168889 L30.7205384,5.50556667 L27.3857074,5.50556667 C27.5613559,6.14081111 27.6491802,6.65507037 27.6491802,7.04834444 C27.6491802,7.44663333 27.58143,7.93315185 27.4459294,8.5079 C28.173608,8.75998148 28.7658008,8.88602222 29.2225078,8.88602222 C29.8548412,8.88602222 30.4194207,8.63646296 30.9162463,8.13734444 L30.9162463,9.32467778 L30.9162463,9.32458889 Z M19.9257925,4.4317 L19.9257925,5.50557778 L15.4392768,5.50557778 L15.4392768,7.88024444 C15.7152918,7.71891111 16.0364761,7.63824444 16.4028297,7.63824444 C17.0251206,7.63824444 17.5897001,7.90293333 18.0965682,8.43231111 C18.6084575,8.96168148 18.8644022,9.6549037 18.8644022,10.5119778 C18.8644022,11.187563 18.6536268,11.8984519 18.2320761,12.6446444 L17.3889673,11.8127667 C17.8607086,10.9909889 18.0965793,10.2725444 18.0965793,9.65743333 C18.0965793,9.20368519 18.006248,8.86337407 17.8255855,8.6365 C17.6499369,8.40962593 17.3864677,8.29618889 17.0351779,8.29618889 C16.5333311,8.29618889 16.0013788,8.54574815 15.439321,9.04486667 L15.439321,14.1117556 L15.1382107,14.1117556 L14.2574645,13.1059444 L14.2574645,9.87672222 C13.5699339,10.4716333 12.9175375,10.7690889 12.3002753,10.7690889 C11.6829982,10.7690889 11.191194,10.5724667 10.8248625,10.1792222 C10.4585089,9.78093333 10.275332,9.27678519 10.275332,8.66677778 C10.275332,8.12731852 10.4434524,7.70383704 10.7796932,7.39633333 C11.1209478,7.08375556 11.5174143,6.92746667 11.9690926,6.92746667 C12.8322939,6.92746667 13.5951067,7.3308 14.2575309,8.13746667 L14.2575309,5.50568889 L9.4247245,5.50568889 L9.4247245,4.43181111 L19.9259252,4.43181111 L19.9257925,4.4317 Z M14.2574092,8.64403333 L14.2574092,8.50034444 C13.8709742,8.15247037 13.376663,7.97853333 12.7744645,7.97853333 C12.1521736,7.97853333 11.6678902,8.10205556 11.3216143,8.3491 C10.9803596,8.5911 10.8097323,8.86839259 10.8097323,9.18097778 C10.8097323,9.45322222 10.8975566,9.67757407 11.0732052,9.85403333 C11.2538677,10.0254481 11.4997735,10.1111556 11.8109226,10.1111556 C12.3880516,10.1111556 13.2035471,9.62211852 14.2574092,8.64404444 L14.2574092,8.64403333 Z M9.63539663,4.4317 L9.63539663,5.50557778 L7.34695841,5.50557778 L7.34695841,9.48346667 C7.34695841,9.90697037 6.94046413,10.4943407 6.12747555,11.2455778 L5.32200414,10.4288222 C5.88407668,9.86416296 6.16511296,9.47594074 6.16511296,9.26415556 L6.16511296,5.5056 L2.7625943,5.5056 L2.7625943,10.8296 C2.7625943,10.9758074 2.77262947,11.0917667 2.7926998,11.1774778 C2.81779141,11.2631889 3.05616901,11.4371259 3.5078326,11.6992889 L6.89530956,13.6730667 C7.64304375,14.1066444 8.16496826,14.4797185 8.46108308,14.7922889 C8.75717579,15.1099111 8.90522215,15.4300556 8.90522215,15.7527222 C8.90522215,16.3173889 8.48619312,16.6476185 7.64813507,16.7434111 L7.21152791,16.1081556 C7.44238097,16.0880074 7.63308232,16.009863 7.78363193,15.8737222 C7.93920282,15.7426407 8.01698826,15.5913926 8.01698826,15.4199778 C8.01698826,15.1880593 7.86894191,14.9284148 7.5728492,14.6410444 C7.27675649,14.3536667 6.83512806,14.038563 6.24796391,13.6957333 L2.5669528,11.5555111 C2.15041597,11.3135111 1.8819255,11.0891593 1.76148139,10.8824556 C1.64103727,10.6757444 1.58081521,10.3152667 1.58081521,9.80102222 L1.58081521,5.50557778 L0,5.50557778 L0,4.4317 L9.63552936,4.4317 L9.63539663,4.4317 Z" id="wikipedia-tagline-ne" fill="#000000" fill-rule="nonzero"></path>
    </g>
</svg>

<svg xmlns="http://www.w3.org/2000/svg" width="120" height="17"><path fill="#000" fill-rule="nonzero" d="M112.495 10.784c.391.459.738.93 1.039 1.414.306.48.567.968.783 1.467l-.362.19a12.341 12.341 0 0 0-.82-1.528 12.026 12.026 0 0 0-1.017-1.392 3.46 3.46 0 0 1-1.28.25c-.33 0-.579-.07-.745-.212-.165-.146-.248-.365-.248-.658 0-.267.073-.466.218-.597.15-.136.377-.204.678-.204.356 0 .745.196 1.167.59l.105.098.098-.084a4.85 4.85 0 0 0 1.114-1.383c-.888-.03-1.598-.24-2.13-.628-.532-.388-.798-.918-.798-1.588 0-.64.205-1.167.617-1.58a1.997 1.997 0 0 1 1.475-.628c.768 0 1.378.262 1.83.786.456.524.685 1.203.685 2.034 0 .777-.201 1.47-.603 2.08-.401.61-1.003 1.134-1.806 1.573ZM114 6.164c0-.878-.356-1.316-1.069-1.316-.461 0-.835.211-1.121.635-.281.418-.422.925-.422 1.52 0 .827.47 1.24 1.408 1.24.23 0 .484-.05.76-.151.296-.666.444-1.309.444-1.929Zm6-.659h-2.281v8.63h-.294l-.873-1.014V5.505h-.76l-.813-1.073H120v1.073Zm-10.554-1.073v1.073h-2.28v8.607h-.28l-.903-1.052V5.505h-1.678V4.432h2.085l-1.144-1.505c-.512-.67-.994-1.097-1.446-1.278-.451-.187-1.109-.28-1.972-.28h-1.024l-.482-1.286h.813c1.17 0 2.005.162 2.507.484.502.323 1.1.958 1.792 1.906l1.43 1.959h2.582Zm-4.938 0v1.073h-4.487V7.88c.276-.161.598-.242.964-.242.622 0 1.187.265 1.694.794.512.53.768 1.223.768 2.08 0 .675-.211 1.386-.633 2.133l-.843-.832c.472-.822.708-1.54.708-2.156 0-.453-.09-.794-.271-1.02-.176-.227-.44-.34-.79-.34-.503 0-1.035.249-1.597.748v5.067h-.3l-.881-1.006v-3.23c-.688.596-1.34.893-1.958.893-.617 0-1.109-.197-1.475-.59-.366-.398-.55-.902-.55-1.512 0-.54.169-.963.505-1.27a1.707 1.707 0 0 1 1.19-.47c.862 0 1.625.404 2.288 1.21V5.506h-4.833V4.432h10.501ZM98.84 8.644V8.5c-.387-.348-.881-.522-1.483-.522-.623 0-1.107.124-1.453.371-.342.242-.512.52-.512.832 0 .272.088.496.263.673.181.171.427.257.738.257.577 0 1.393-.489 2.447-1.467ZM88 8.727a9.476 9.476 0 0 1-2.553-.575l-2.552 1.785-.903-.733 2.311-1.498c-.647-.237-1.134-.517-1.46-.84-.322-.327-.482-.7-.482-1.118 0-.374.165-.696.497-.968.33-.278.7-.416 1.106-.416.602 0 1.155.239 1.656.718.502.474.753.983.753 1.528 0 .524-.218.953-.655 1.285.482.177 1.144.318 1.988.424.873.11 1.513.27 1.92.476.406.202.792.484 1.158.847V5.506h-3.816l-.708-1.074h7.972v1.074h-2.288v8.583h-.317l-.843-1.028v-.726c-.858.594-1.618.892-2.28.892-.613 0-1.218-.303-1.815-.908-.592-.61-.888-1.18-.888-1.709 0-.393.173-.763.52-1.111.346-.348.905-.605 1.678-.772ZM85.717 6.08a.916.916 0 0 0-.293-.703 1.016 1.016 0 0 0-.73-.272c-.332 0-.61.105-.836.317-.221.207-.331.477-.331.81 0 .262.09.496.27.703.181.201.455.378.821.53.733-.5 1.1-.961 1.1-1.385Zm5.066 4.454v-.378c-.431-.317-.863-.476-1.294-.476-.593 0-1.217.164-1.875.491-.657.323-.986.689-.986 1.097 0 .323.11.592.331.81.221.211.48.317.776.317.34 0 .923-.242 1.746-.726.823-.49 1.257-.867 1.302-1.134ZM81.82 4.432v1.073H79.53v8.584h-.316l-.865-.968v-2.51c-.859.594-1.619.892-2.281.892-.613 0-1.217-.303-1.815-.908-.592-.61-.888-1.18-.888-1.71 0-.347.136-.677.407-.99.27-.312.672-.554 1.204-.726.537-.176.991-.264 1.363-.264.667 0 1.337.337 2.01 1.013V5.505h-5.872V4.432h9.342Zm-3.47 4.378v-.378c-.432-.317-.864-.476-1.295-.476-.592 0-1.217.164-1.875.491-.657.323-.986.688-.986 1.097 0 .322.11.592.331.809.221.212.48.318.776.318.341 0 .923-.242 1.746-.726.823-.49 1.257-.868 1.302-1.135ZM72.68 4.432v1.073H70.4v8.584h-.34l-.843-.968V5.505H67.54V4.432h1.934c-.612-.59-.918-1.243-.918-1.96 0-.846.437-1.494 1.31-1.943C70.557.176 71.368 0 72.296 0c1.46 0 2.793.37 3.997 1.112 1.21.736 2.289 1.842 3.237 3.32h-.512c-.958-1.135-1.982-1.984-3.07-2.549a7.351 7.351 0 0 0-3.456-.855c-.918 0-1.606.154-2.063.462-.456.302-.685.756-.685 1.361 0 .54.158 1.066.475 1.58h2.461Zm-9.199 0v1.073h-2.28v8.569h-.317l-.866-.953V9.672l-3.673 1.974-.858-.771 4.23-2.231c-.762-.766-1.43-1.15-2.002-1.15-.582 0-1.405.323-2.47.969l-.902-.908a10.3 10.3 0 0 1 1.58-.673c.613-.212 1.072-.318 1.378-.318.341 0 .695.111 1.061.333.372.222.924.731 1.657 1.528v-2.92h-6.21V4.433h9.672Zm-9.44 1.073H48.66V4.432h5.382v1.073Zm.196 3.343h-2.243c-.356 0-.575.068-.655.204-.075.131-.113.406-.113.825 0 .211.018.446.053.703.015.146.022.302.022.469 0 .227-.095.34-.286.34-.226 0-.564-.343-1.016-1.028-.447-.686-.67-1.23-.67-1.634 0-.282.093-.51.279-.68a.91.91 0 0 1 .647-.265h3.982v1.066ZM48.87 4.432v1.074h-2.288v8.606h-.354l-.828-.968V8.372h-1.867c-.803 0-1.363.133-1.679.4-.316.268-.474.636-.474 1.105 0 .499.2 1.04.602 1.626.407.584 1.067 1.348 1.98 2.291l-.256.242c-1.27-1.25-2.103-2.206-2.5-2.866-.396-.66-.594-1.324-.594-1.989 0-.565.158-1.018.474-1.361.316-.343.86-.515 1.634-.515h2.68v-1.8h-5.774V4.433h9.244Zm-9.026 0v1.074h-2.288v8.583h-.316l-.866-.968v-2.51c-.858.594-1.619.892-2.281.892-.612 0-1.217-.303-1.814-.908-.592-.61-.889-1.18-.889-1.709 0-.348.136-.678.407-.99.271-.313.672-.555 1.204-.727.537-.176.992-.264 1.363-.264.667 0 1.337.337 2.01 1.013V5.506h-5.872V4.432h9.342Zm-3.47 4.378v-.378c-.432-.317-.863-.476-1.295-.476-.592 0-1.217.164-1.874.491-.658.323-.987.689-.987 1.097 0 .323.11.592.332.81.22.21.479.317.775.317.341 0 .923-.242 1.746-.726.823-.49 1.258-.867 1.303-1.135Zm-5.458.515c-.522.262-1.139.393-1.852.393-.542 0-1.171-.139-1.889-.416-.311.645-.627 1.122-.949 1.43.492.604.949 1.151 1.37 1.64.427.49.818.918 1.175 1.286l-.218.257a72.548 72.548 0 0 1-1.852-2.027 21.122 21.122 0 0 1-1.16-1.437c-.542-.76-.813-1.36-.813-1.8 0-.257.058-.448.174-.574.12-.131.298-.197.534-.197.276 0 .592.086.949.257.235-.348.353-.826.353-1.437 0-.373-.105-.77-.316-1.194h-2.424V4.432h6.723v1.074h-3.335c.175.635.263 1.15.263 1.542 0 .399-.068.885-.203 1.46.728.252 1.32.378 1.777.378.632 0 1.196-.25 1.693-.749v1.188Zm-10.99-4.893v1.074h-4.487V7.88c.276-.161.597-.242.964-.242.622 0 1.187.265 1.694.794.511.53.767 1.223.767 2.08 0 .676-.21 1.386-.632 2.133l-.843-.832c.472-.822.708-1.54.708-2.156 0-.453-.09-.794-.271-1.02-.176-.227-.44-.34-.79-.34-.503 0-1.035.249-1.597.748v5.067h-.3l-.882-1.006v-3.23c-.687.596-1.34.893-1.957.893s-1.109-.197-1.475-.59c-.366-.398-.55-.902-.55-1.512 0-.54.168-.963.505-1.27a1.707 1.707 0 0 1 1.19-.47c.862 0 1.625.404 2.288 1.21V5.506H9.425V4.432h10.5Zm-5.669 4.212V8.5c-.386-.348-.88-.521-1.483-.521-.622 0-1.106.123-1.452.37-.342.242-.512.52-.512.832 0 .272.088.497.263.673.18.171.427.257.738.257.577 0 1.393-.489 2.446-1.467ZM9.635 4.432v1.074H7.347v3.977c0 .424-.407 1.011-1.22 1.763l-.805-.817c.562-.565.843-.953.843-1.165V5.506H2.763v5.324c0 .146.01.262.03.347.025.086.263.26.715.522l3.387 1.974c.748.434 1.27.807 1.566 1.12.296.317.444.637.444.96 0 .564-.419.895-1.257.99l-.436-.635a.95.95 0 0 0 .572-.234c.155-.131.233-.283.233-.454 0-.232-.148-.492-.444-.779-.296-.287-.738-.602-1.325-.945l-3.681-2.14c-.417-.242-.685-.467-.806-.674-.12-.206-.18-.567-.18-1.081V5.506H0V4.432h9.636Z"/></svg>
